X: 17775
T: Honeycomb, The
R: reel
M: 4/4
K: Gmajor
|:g2fg afd2|g2fg a2a2|abag aged|edef g2 ge:|
|:dBcA BAcA|BAGA B2ge|dBcA BAcA|ABAF G2 z2:|

